ametion_vv-test/img/icons/article-mail.svg

<svg width="48" height="48" viewBox="0 0 48 48" fill="none" xmlns="http://www.w3.org/2000/svg">
<rect width="48" height="48" rx="12" fill="#F9F9F9"/>
<path d="M30.4 18H17.6C16.72 18 16 18.675 16 19.5V28.5C16 29.325 16.72 30 17.6 30H30.4C31.28 30 32 29.325 32 28.5V19.5C32 18.675 31.28 18 30.4 18ZM30.08 21.1875L24.848 24.255C24.328 24.5625 23.672 24.5625 23.152 24.255L17.92 21.1875C17.72 21.0675 17.6 20.865 17.6 20.6475C17.6 20.145 18.184 19.845 18.64 20.1075L24 23.25L29.36 20.1075C29.816 19.845 30.4 20.145 30.4 20.6475C30.4 20.865 30.28 21.0675 30.08 21.1875Z" fill="#36BA5F"/>
</svg>

<svg width="48" height="48" fill="none" xmlns="http://www.w3.org/2000/svg"><rect width="48" height="48" rx="12" fill="#F9F9F9"/><path d="M30.4 18H17.6c-.88 0-1.6.675-1.6 1.5v9c0 .825.72 1.5 1.6 1.5h12.8c.88 0 1.6-.675 1.6-1.5v-9c0-.825-.72-1.5-1.6-1.5zm-.32 3.188l-5.232 3.067a1.674 1.674 0 01-1.696 0l-5.232-3.067a.634.634 0 01-.32-.54c0-.503.584-.803 1.04-.54L24 23.25l5.36-3.142c.456-.263 1.04.037 1.04.54 0 .217-.12.42-.32.54z" fill="#36BA5F"/></svg>
